UI/Map-View/SVG/legend_outline_24px.svg

<svg width="24" height="24" viewBox="0 0 24 24" fill="none" xmlns="http://www.w3.org/2000/svg">
<path d="M2 2V18C2 18.5304 2.21071 19.0391 2.58579 19.4142C2.96086 19.7893 3.46957 20 4 20H7V22H9V18H4V4H11V20H20C20.5304 20 21.0391 19.7893 21.4142 19.4142C21.7893 19.0391 22 18.5304 22 18V2H2ZM20 18H13V4H20V18ZM18 8H15V6H18V8ZM18 12H15V10H18V12ZM18 16H15V14H18V16Z" fill="#0F1621"/>
</svg>

<svg xmlns="http://www.w3.org/2000/svg" width="24" height="24" viewBox="0 0 24 24"><rect width="24" height="24" style="fill:none"/><path d="M2,2V18a2,2,0,0,0,2,2H7v2H9V18H4V4h7V20h9a2,2,0,0,0,2-2V2ZM20,18H13V4h7ZM18,8H15V6h3Zm0,4H15V10h3Zm0,4H15V14h3Z"/></svg>
